assets/icons/cart.svg

<svg width="24" height="25" viewBox="0 0 24 25" fill="none" xmlns="http://www.w3.org/2000/svg">
<path d="M2.25 3.5H3.636C4.146 3.5 4.591 3.843 4.723 4.335L5.106 5.772M5.106 5.772C10.6766 5.61589 16.2419 6.23515 21.642 7.612C20.818 10.066 19.839 12.45 18.718 14.75H7.5M5.106 5.772L7.5 14.75M7.5 14.75C6.70435 14.75 5.94129 15.0661 5.37868 15.6287C4.81607 16.1913 4.5 16.9544 4.5 17.75H20.25M6 20.75C6 20.9489 5.92098 21.1397 5.78033 21.2803C5.63968 21.421 5.44891 21.5 5.25 21.5C5.05109 21.5 4.86032 21.421 4.71967 21.2803C4.57902 21.1397 4.5 20.9489 4.5 20.75C4.5 20.5511 4.57902 20.3603 4.71967 20.2197C4.86032 20.079 5.05109 20 5.25 20C5.44891 20 5.63968 20.079 5.78033 20.2197C5.92098 20.3603 6 20.5511 6 20.75ZM18.75 20.75C18.75 20.9489 18.671 21.1397 18.5303 21.2803C18.3897 21.421 18.1989 21.5 18 21.5C17.8011 21.5 17.6103 21.421 17.4697 21.2803C17.329 21.1397 17.25 20.9489 17.25 20.75C17.25 20.5511 17.329 20.3603 17.4697 20.2197C17.6103 20.079 17.8011 20 18 20C18.1989 20 18.3897 20.079 18.5303 20.2197C18.671 20.3603 18.75 20.5511 18.75 20.75Z" stroke="black" stroke-width="1.5" stroke-linecap="round" stroke-linejoin="round"/>
</svg>

<?xml version="1.0" encoding="UTF-8"?>
<svg id="Layer_1" data-name="Layer 1" xmlns="http://www.w3.org/2000/svg" viewBox="0 0 24 25">
  <path d="M2.25,3.5h1.39c.51,0,.96.34,1.09.84l.38,1.44M5.11,5.77c5.57-.16,11.14.46,16.54,1.84-.82,2.45-1.8,4.84-2.92,7.14H7.5M5.11,5.77l2.39,8.98M7.5,14.75c-.8,0-1.56.32-2.12.88-.56.56-.88,1.33-.88,2.12h15.75M6,20.75c0,.2-.08.39-.22.53-.14.14-.33.22-.53.22s-.39-.08-.53-.22c-.14-.14-.22-.33-.22-.53s.08-.39.22-.53c.14-.14.33-.22.53-.22s.39.08.53.22c.14.14.22.33.22.53ZM18.75,20.75c0,.2-.08.39-.22.53-.14.14-.33.22-.53.22s-.39-.08-.53-.22c-.14-.14-.22-.33-.22-.53s.08-.39.22-.53c.14-.14.33-.22.53-.22s.39.08.53.22c.14.14.22.33.22.53Z" style="fill: none; stroke: #000; stroke-linecap: round; stroke-linejoin: round; stroke-width: 1.5px;"/>
</svg>
